X:2213
T:The Prodigal Son
T:Yn Mac Stroialtagh - Arrane y phelican 
C:Traditional
O:Isle of Man
N:See also KV 56 and 242. 
Z:Clague collection
B:Kiaull Vannin #213 
M:4/4 
Q:80
L:1/4 
K:G 
e|c2 BA|(d3/2c/) BA|(A E) F G|A3 A|AB cd|e2 ec|dd gf|e3 A|
AB (c-d)|e2 ec|dd e/f/ g|a3 e/f/|gf ed|(c-B) eA|AE FG|A3|| 

